resources/images/objlist_sinking.svg

<svg width="16" height="16" viewBox="0 0 16 16" fill="none" xmlns="http://www.w3.org/2000/svg">
<path d="M0.286 8.19014C0.103048 8.00712 0.00027241 7.75893 0.00027241 7.50014C0.00027241 7.24136 0.103048 6.99317 0.286 6.81014L6.81 0.286142C6.90056 0.195434 7.00811 0.123471 7.12651 0.0743721C7.24491 0.0252727 7.37183 0 7.5 0C7.62817 0 7.75509 0.0252727 7.87349 0.0743721C7.99189 0.123471 8.09944 0.195434 8.19 0.286142L14.714 6.81014C14.897 6.99317 14.9997 7.24136 14.9997 7.50014C14.9997 7.75893 14.897 8.00712 14.714 8.19014L13.871 9.03314C13.2603 9.08196 12.6587 9.21142 12.082 9.41814L14.007 7.48314L7.5 1.01014L0.993 7.51714L2.858 9.37214C2.62777 9.4508 2.40238 9.54296 2.183 9.64814C2.07506 9.69045 1.9649 9.72683 1.853 9.75714L0.286 8.19014ZM9.833 13.0001C9.42839 12.9972 9.0247 12.9611 8.626 12.8921L7.517 14.0071L5.537 12.0381C5.412 12.0271 5.293 12.0001 5.165 12.0001C4.84253 12.0014 4.52121 12.0386 4.207 12.1111L6.807 14.7111C6.89756 14.8019 7.00511 14.8738 7.12351 14.9229C7.24191 14.972 7.36883 14.9973 7.497 14.9973C7.62517 14.9973 7.75209 14.972 7.87049 14.9229C7.98889 14.8738 8.09644 14.8019 8.187 14.7111L9.908 13.0001C9.883 13.0001 9.858 13.0001 9.833 13.0001ZM12.384 11.4501C13.0478 11.1469 13.7702 10.9932 14.5 11.0001H15V10.0001H14.5C13.6196 9.99091 12.7483 10.1788 11.95 10.5501C11.2813 10.8372 10.5612 10.9852 9.8335 10.9852C9.1058 10.9852 8.3857 10.8372 7.717 10.5501C6.91626 10.1858 6.04674 9.99726 5.167 9.99726C4.28726 9.99726 3.41774 10.1858 2.617 10.5501C1.95287 10.8536 1.23013 11.0072 0.5 11.0001H0V12.0001H0.5C1.38039 12.0094 2.25168 11.8214 3.05 11.4501C3.71612 11.1533 4.43724 10.9999 5.1665 10.9999C5.89576 10.9999 6.61688 11.1533 7.283 11.4501C8.08132 11.8214 8.95261 12.0094 9.833 12.0001C10.7137 12.0095 11.5854 11.8216 12.384 11.4501Z" fill="#FF7C3F"/>
</svg>

<svg xmlns="http://www.w3.org/2000/svg" width="16" height="16" viewBox="0 0 16 16"><path d="M.286,8.19a.976.976,0,0,1,0-1.38L6.81.286a.975.975,0,0,1,1.38,0L14.714,6.81a.976.976,0,0,1,0,1.38l-.843.843a6.941,6.941,0,0,0-1.789.385l1.925-1.935L7.5,1.01.993,7.517,2.858,9.372a6.193,6.193,0,0,0-.675.276,3.189,3.189,0,0,1-.33.109ZM9.833,13a7.4,7.4,0,0,1-1.207-.108L7.517,14.007l-1.98-1.969C5.412,12.027,5.293,12,5.165,12a4.333,4.333,0,0,0-.958.111l2.6,2.6a.975.975,0,0,0,1.38,0L9.908,13C9.883,13,9.858,13,9.833,13Zm2.551-1.55A4.979,4.979,0,0,1,14.5,11H15V10h-.5a5.9,5.9,0,0,0-2.55.55,5.366,5.366,0,0,1-4.233,0,6.157,6.157,0,0,0-5.1,0A4.979,4.979,0,0,1,.5,11H0v1H.5a5.9,5.9,0,0,0,2.55-.55,5.2,5.2,0,0,1,4.233,0,5.9,5.9,0,0,0,2.55.55A5.9,5.9,0,0,0,12.384,11.45Z" style="fill:#ff6f00"/></svg>
